X:1
T:Étretat, 11.10.11.10 D
T:Étretat, 11.10.11.10 D
T:Charles Edward Pollock, 1890
T:Public Domain Courtesy of the Cyber Hymnal™
C:Charles Edward Pollock, 1890
Z:Public Domain
Z:Courtesy of the Cyber Hymnal™
%%score 1 ( 2 3 )
L:1/8
Q:1/4=80
M:6/8
K:Bb
V:1 treble 
V:2 bass 
V:3 bass 
V:1
 [DF]>[DF][DF] [DF][B,D][DF] | [DB][FA][EG] [EG]2 [B,D] | [EG]>[EG][EG] [EG][D^F][EG] | %3
 [=EG][Ec][EB] [FA]3 | [DF]>[DF][DF] [DF][B,D][DF] | [DB][FA][EG] [DF]2 [B,D] | %6
 [EG]>[EG][EG] [=EG][Ec][EB] | [_EA]>[EG][EA] [DB]3 | [Fd]>[Fd][Fd] [Fd][Ec][DB] | %9
 [Ec][GB][EG] [DF]2 [DB] | [Fc]>[Fc][Fc] [Fc][FB][Fc] | [Fd]>[Fc][=EB] [Fc]3 x6 | %12
 [Fd]>[Fd][Fd] [Fd][Ec][DB] | [Ec][GB][EG] [DF]2 [DB] | [EA]>[EA][EA] [EA][EG][EA] | %15
 [Fc][FB][EA] [DB]2 |] %16
V:2
 [B,,B,]>[B,,B,][B,,B,] [B,,B,][B,,F,][B,,B,] | [B,,B,][B,,B,][B,,B,] [B,,B,]2 [B,,F,] | %2
 [E,B,]>[E,B,][E,B,] [E,B,][E,B,][E,B,] | [C,B,][C,G,][C,C] [F,C]3 | %4
 [B,,B,]>[B,,B,][B,,B,] [B,,B,][B,,F,][B,,B,] | [B,,B,][B,,B,][B,,B,] [B,,B,]2 [B,,F,] | %6
 [E,B,]>[E,B,][E,B,] [C,B,][C,G,][C,D] | [F,C]>[F,B,][F,C] [B,,B,]3 | %8
 [B,,B,]>[B,,B,][B,,B,] [B,,B,][B,,B,][B,,B,] | [E,G,][E,B,][E,B,] [B,,B,]2 [B,,B,] | %10
 [F,A,]>[F,A,][F,A,] [F,A,][D,B,][F,A,] | %11
 B,>[A,C][G,C] [F,A,]3 [B,,B,]>[B,,B,][B,,B,][B,,B,][B,,B,][B,,B,] | %12
 [E,G,][E,B,][E,B,] [B,,B,]2 [B,,B,] | [F,C]>[F,C][F,C] [F,C][F,B,][F,C] | %14
 [F,E][F,D][F,C] [B,,B,]2 x | x5 |] %16
V:3
 x6 | x6 | x6 | x6 | x6 | x6 | x6 | x6 | x6 | x6 | x6 | B,3/2 x21/2 | x6 | x6 | x6 | x5 |] %16

